X: 1
T: Pay The Reckoning
R: jig
M: 6/8
L: 1/8
K: Gmaj
G2e dBG|~B3 dBA|G2e dBG|~A3 BGE|
G2e dBG|~B3 deg|age dBG|~A3 BGE:|
~g3 faf|e/f/ge def|gfg efg|aga bge|
gbg f/g/af|ege deg|age dBG|~A3 BGE:|


Tune 1805	Setting 27795

